!!!COM: Beethoven
!!!OTL: Acht Variationen uber "Une fievre brulante" aus "Richard Coeur de Lion" von A.E.M. Gretry
!!!Variation: Variation 8 f
**function	**harm	**kern	**kern
*	*	*clefF4	*clefG2
*	*	*k[]	*k[]
*M2/4	*M2/4	*M2/4	*M2/4
*C:	*C:	*C:	*C:
=331	=331	=331	=331
2T	2I/-VI	12AA-L	(4c 4cc
.	.	12E-	.
.	.	12A-J	.
.	.	12AA-L	4A- 4a-
.	.	12C	.
.	.	12GJ	.
=332	=332	=332	=332
4T	4IVc/-VI	12AA-L	4d- 4dd-
.	.	12F	.
.	.	12A-J	.
4T	4I/-VI	12AA-L	4c 4cc
.	.	12E-	.
.	.	12A-J	.
=333	=333	=333	=333
2T	2I/-VI	12AA-L	4c 4cc
.	.	12E-	.
.	.	12A-J	.
.	.	12AA-L	4B-) 4b-
.	.	12D-	.
.	.	12GJ	.
=334	=334	=334	=334
2T	2I/-VI	12AA-L	(2A- 2a-
.	.	12C	.
.	.	12E-J	.
.	.	12AA-L	.
.	.	12C	.
.	.	12E-J	.
=335	=335	=335	=335
2T	2V7/ii/-VI	12FFL	2A 2a
.	.	12C	.
.	.	12E-J	.
.	.	12FFL	.
.	.	12C	.
.	.	12E-J	.
=336	=336	=336	=336
2P	2ii/-VI	12BB-L	2B- 2b-
.	.	12D-	.
.	.	12FJ	.
.	.	12BB-L	.
.	.	12D-	.
.	.	12FJ	.
=337	=337	=337	=337
2D	2V7	12GGL	2B 2b
.	.	12D	.
.	.	12FJ	.
.	.	12GGL	.
.	.	12D	.
.	.	12FJ	.
=338	=338	=338	=338
2D	2V7	12GGL	2f) 2b 2ff
.	.	12D	.
.	.	12FJ	.
.	.	12GGL	.
.	.	12D	.
.	.	12FJ	.
*-	*-	*-	*-
